X: 11693
T: FATHER QUIN
O: Irish air.
Q: "Slowly and tenderly."
%R: air, march
B: W. Hamilton "Universal Tune-Book" Vol. 1 Glasgow 1844 p.169 #3
S: http://imslp.org/wiki/Hamilton's_Universal_Tune-Book_(Various)
Z: 2016 John Chambers <jc:trillian.mit.edu>
M: C
L: 1/8
K: A
%%slurgraces yes
%%graceslurs yes
% - - - - - - - - - - - - - - - - - - - - - - - - -
A2 |\
d2(fe) {d}c2(BA) | (dc)(BA) {G}F2(A>B) |\
c2e2 E3F | (AB/c/ {c}B>)A A2zA |\
d2(f>e) {d}c2(B/A/) | (dc)(BA) {G}F2A>B |\
c2e2 E3F | (AB/c/ {c}B)>A A2zA |
c3e f2=g2 | f3e (dc)(BA) |\
c2e2 f3^g | a3c {c}B2zg |\
a2({g}fe) c2(BA) | (dc)(BA) {G}F2A>B |\
c2e2 E3F | (AB/c/ {c}B)>A A2 |]
% - - - - - - - - - - - - - - - - - - - - - - - - -
%%begintext align
%% Moore's song, "Whene'er I see those smiling eyes,"
%% is set to the above air.
%%endtext
%%sep 1 1 300

%%sep 1 1 500
%%sep 1 1 500

